assets/azuremediaservice/original.svg

<svg height="18" viewBox="0 0 18 18" width="18" xmlns="http://www.w3.org/2000/svg" xmlns:xlink="http://www.w3.org/1999/xlink"><linearGradient id="a" gradientTransform="matrix(.5 .8660254 -.8660254 .5 -419.691367 794.086771)" gradientUnits="userSpaceOnUse" x1="-481.386" x2="-463.782" y1="-747.701" y2="-778.247"><stop offset="0" stop-color="#005ba1"/><stop offset=".366" stop-color="#004e8f"/><stop offset="1" stop-color="#003067"/></linearGradient><linearGradient id="b" gradientTransform="matrix(-.5 -.8660254 .8660254 -.5 -1249.21588 -858.401124)" gradientUnits="userSpaceOnUse" x1="-1395.588" x2="-1374.204" y1="671.239" y2="633.738"><stop offset="0" stop-color="#005ba1"/><stop offset=".451" stop-color="#004685"/><stop offset="1" stop-color="#003067"/></linearGradient><linearGradient id="c" gradientUnits="userSpaceOnUse" x1="6.003" x2="7.447" y1="14.447" y2="6.204"><stop offset=".26" stop-color="#50e6ff"/><stop offset=".42" stop-color="#79eaff"/><stop offset=".58" stop-color="#99edff"/><stop offset=".733" stop-color="#b0efff"/><stop offset=".876" stop-color="#bef1ff"/><stop offset="1" stop-color="#c3f1ff"/></linearGradient><path d="m9.243 3.927 4.372 2.515 3.048-1.76a8.792 8.792 0 0 0 -13.928-1.858 10.02 10.02 0 0 1 6.508 1.103" fill="url(#a)"/><path d="m13.558 6.442-.069 6.034 3.168.851a8.792 8.792 0 0 0 -5.242-12.791 10.44 10.44 0 0 1 2.143 5.906" fill="#0078d4"/><path d="m13.552 11.646-4.552 2.63.071 3.5a8.8 8.8 0 0 0 8.764-8.8 8.4 8.4 0 0 0 -.288-2.09 9.57 9.57 0 0 1 -3.995 4.76" fill="#5ea0ef"/><path d="m9 14.276-4.555-2.63-3.02 1.812a8.78 8.78 0 0 0 13.672 1.881 9.9 9.9 0 0 1 -6.097-1.063" fill="url(#b)"/><path d="m4.442 11.646.069-6.237-3.117-.821a8.74 8.74 0 0 0 -1.194 4.412 8.85 8.85 0 0 0 6.535 8.5 10.2 10.2 0 0 1 -2.293-5.854" fill="#0078d4"/><path d="m4.6 6.3 4.4-2.543a10.6 10.6 0 0 0 -5.942-1.245 8.76 8.76 0 0 0 -2.858 6.488 9 9 0 0 0 .314 2.32 10.25 10.25 0 0 1 4.086-5.02" fill="#5ea0ef"/><path d="m13.552 11.646v-5.26l-4.555-2.629-4.555 2.629v5.26l4.555 2.63z" fill="#c3f1ff"/><path d="m9.003 9.071v5.205l-4.561-2.63v-5.242z" fill="url(#c)"/><path d="m8.997 9.071v5.205l4.561-2.63v-5.242z" fill="#50e6ff"/></svg>

<svg xmlns="http://www.w3.org/2000/svg" id="a5e980e2-fe6c-4b4b-bd88-a9c235de5a4d" width="18" height="18" viewBox="0 0 18 18"><defs><linearGradient id="af3748e9-b70c-45be-94d6-553fb78dc833" x1="-481.386" x2="-463.782" y1="-747.701" y2="-778.247" gradientTransform="rotate(60 -897.545 33.58)" gradientUnits="userSpaceOnUse"><stop offset="0" stop-color="#005ba1"/><stop offset=".366" stop-color="#004e8f"/><stop offset="1" stop-color="#003067"/></linearGradient><linearGradient id="bccb774a-3f0f-4cfb-8caf-da5943d5aaf7" x1="-1395.588" x2="-1374.204" y1="671.239" y2="633.738" gradientTransform="rotate(240 -872.407 -68.583)" gradientUnits="userSpaceOnUse"><stop offset="0" stop-color="#005ba1"/><stop offset=".451" stop-color="#004685"/><stop offset="1" stop-color="#003067"/></linearGradient><linearGradient id="ecd98112-5cbf-4c9b-800a-df61d86f7d77" x1="6.003" x2="7.447" y1="14.447" y2="6.204" gradientUnits="userSpaceOnUse"><stop offset=".26" stop-color="#50e6ff"/><stop offset=".42" stop-color="#79eaff"/><stop offset=".58" stop-color="#99edff"/><stop offset=".733" stop-color="#b0efff"/><stop offset=".876" stop-color="#bef1ff"/><stop offset="1" stop-color="#c3f1ff"/></linearGradient></defs><path fill="url(#af3748e9-b70c-45be-94d6-553fb78dc833)" d="m9.243 3.927 4.372 2.515 3.048-1.76A8.792 8.792 0 0 0 2.735 2.824a10.02 10.02 0 0 1 6.508 1.103"/><path fill="#0078d4" d="m13.558 6.442-.069 6.034 3.168.851A8.792 8.792 0 0 0 11.415.536a10.44 10.44 0 0 1 2.143 5.906"/><path fill="#5ea0ef" d="M13.552 11.646 9 14.276l.071 3.5a8.8 8.8 0 0 0 8.764-8.8 8.4 8.4 0 0 0-.288-2.09 9.57 9.57 0 0 1-3.995 4.76"/><path fill="url(#bccb774a-3f0f-4cfb-8caf-da5943d5aaf7)" d="m9 14.276-4.555-2.63-3.02 1.812a8.78 8.78 0 0 0 13.672 1.881A9.9 9.9 0 0 1 9 14.276"/><path fill="#0078d4" d="m4.442 11.646.069-6.237-3.117-.821A8.74 8.74 0 0 0 .2 9a8.85 8.85 0 0 0 6.535 8.5 10.2 10.2 0 0 1-2.293-5.854"/><path fill="#5ea0ef" d="M4.6 6.3 9 3.757a10.6 10.6 0 0 0-5.942-1.245A8.76 8.76 0 0 0 .2 9a9 9 0 0 0 .314 2.32A10.25 10.25 0 0 1 4.6 6.3"/><path fill="#c3f1ff" d="M13.552 11.646v-5.26L8.997 3.757 4.442 6.386v5.26l4.555 2.63z"/><path fill="url(#ecd98112-5cbf-4c9b-800a-df61d86f7d77)" d="M9.003 9.071v5.205l-4.561-2.63V6.404z"/><path fill="#50e6ff" d="M8.997 9.071v5.205l4.561-2.63V6.404z"/></svg>
